icons/circle/48/steam_icon_299660.svg

<?xml version="1.0" encoding="UTF-8" standalone="no"?>
<svg xmlns="http://www.w3.org/2000/svg" version="1.1" viewBox="0 0 48 48">
	<defs>
		<linearGradient id="bg" gradientUnits="userSpaceOnUse" x1="0" x2="0" y1="1" y2="47">
			<stop offset="0" stop-color="#3d3d3d"/>
			<stop offset="1" stop-color="#303030"/>
		</linearGradient>
	</defs>
	<g>
		<path opacity=".05" d="m 36.31 5 c 5.859 4.062 9.688 10.831 9.688 18.5 c 0 12.426 -10.07 22.5 -22.5 22.5 c -7.669 0 -14.438 -3.828 -18.5 -9.688 c 1.037 1.822 2.306 3.499 3.781 4.969 c 4.085 3.712 9.514 5.969 15.469 5.969 c 12.703 0 23 -10.298 23 -23 c 0 -5.954 -2.256 -11.384 -5.969 -15.469 c -1.469 -1.475 -3.147 -2.744 -4.969 -3.781 z m 4.969 3.781 c 3.854 4.113 6.219 9.637 6.219 15.719 c 0 12.703 -10.297 23 -23 23 c -6.081 0 -11.606 -2.364 -15.719 -6.219 c 4.16 4.144 9.883 6.719 16.219 6.719 c 12.703 0 23 -10.298 23 -23 c 0 -6.335 -2.575 -12.06 -6.719 -16.219 z"/>
		<path opacity=".1" d="m 41.28 8.781 c 3.712 4.085 5.969 9.514 5.969 15.469 c 0 12.703 -10.297 23 -23 23 c -5.954 0 -11.384 -2.256 -15.469 -5.969 c 4.113 3.854 9.637 6.219 15.719 6.219 c 12.703 0 23 -10.298 23 -23 c 0 -6.081 -2.364 -11.606 -6.219 -15.719 z"/>
		<path opacity=".2" d="m 31.25 2.375 c 8.615 3.154 14.75 11.417 14.75 21.13 c 0 12.426 -10.07 22.5 -22.5 22.5 c -9.708 0 -17.971 -6.135 -21.12 -14.75 a 23 23 0 0 0 44.875 -7 a 23 23 0 0 0 -16 -21.875 z"/>
		<circle fill="url(#bg)" cx="24" cy="24" r="23"/>
		<path opacity=".1" d="m 40.03 7.531 c 3.712 4.084 5.969 9.514 5.969 15.469 0 12.703 -10.297 23 -23 23 c -5.954 0 -11.384 -2.256 -15.469 -5.969 4.178 4.291 10.01 6.969 16.469 6.969 c 12.703 0 23 -10.298 23 -23 0 -6.462 -2.677 -12.291 -6.969 -16.469 z"/>
		<circle cx="08.5" cy="24.5" r=".5" fill="#eee"/>
		<circle cx="40.5" cy="20.5" r=".5" fill="#eee"/>
		<circle cx="43.5" cy="26.5" r=".5" fill="#eee"/>
		<circle cx="11.5" cy="33.5" r=".5" fill="#eee"/>
		<circle cx="09.5" cy="12.5" r=".5" fill="#eee"/>
		<circle cx="32.5" cy="36.5" r=".5" fill="#eee"/>
		<circle cx="19.5" cy="39.5" r=".5" fill="#eee"/>
		<circle cx="25.5" cy="43.5" r=".5" fill="#eee"/>
		<circle cx="41.5" cy="34.5" r=".5" fill="#eee"/>
		<circle cx="04.5" cy="18.5" r=".5" fill="#eee"/>
		<circle cx="05.5" cy="30.5" r=".5" fill="#eee"/>
		<circle cx="12.5" cy="40.5" r=".5" fill="#eee"/>
		<circle cx="41.5" cy="13.5" r=".5" fill="#eee"/>
		<circle cx="31.5" cy="05.5" r=".5" fill="#eee"/>
		<circle cx="23.5" cy="09.5" r=".5" fill="#eee"/>
		<circle cx="16.5" cy="05.5" r=".5" fill="#eee"/>
		<circle cx="34.5" cy="11.5" r=".5" fill="#eee"/>
	</g>
	<circle opacity=".1" cx="25" cy="25" r="12"/>
	<circle fill="#eee" cx="24" cy="24" r="12"/>
</svg>

<svg xmlns="http://www.w3.org/2000/svg" viewBox="0 0 48 48">
  <defs>
    <linearGradient id="a" gradientUnits="userSpaceOnUse" x2="0" y1="1" y2="47">
      <stop offset="0" stop-color="#3d3d3d"/>
      <stop offset="1" stop-color="#303030"/>
    </linearGradient>
  </defs>
  <path opacity=".05" d="M36.31 5c5.859 4.062 9.688 10.831 9.688 18.5 0 12.426-10.07 22.5-22.5 22.5-7.669 0-14.438-3.828-18.5-9.688a23.24 23.24 0 0 0 3.781 4.969 22.923 22.923 0 0 0 15.469 5.969c12.703 0 23-10.298 23-23a22.92 22.92 0 0 0-5.969-15.469A23.216 23.216 0 0 0 36.31 5zm4.969 3.781A22.911 22.911 0 0 1 47.498 24.5c0 12.703-10.297 23-23 23a22.909 22.909 0 0 1-15.719-6.219C12.939 45.425 18.662 48 24.998 48c12.703 0 23-10.298 23-23 0-6.335-2.575-12.06-6.719-16.219z"/>
  <path opacity=".1" d="M41.28 8.781a22.923 22.923 0 0 1 5.969 15.469c0 12.703-10.297 23-23 23A22.92 22.92 0 0 1 8.78 41.281 22.911 22.911 0 0 0 24.499 47.5c12.703 0 23-10.298 23-23A22.909 22.909 0 0 0 41.28 8.781z"/>
  <path opacity=".2" d="M31.25 2.375C39.865 5.529 46 13.792 46 23.505c0 12.426-10.07 22.5-22.5 22.5-9.708 0-17.971-6.135-21.12-14.75a23 23 0 0 0 44.875-7 23 23 0 0 0-16-21.875z"/>
  <circle fill="url(#a)" cx="24" cy="24" r="23"/>
  <path opacity=".1" d="M40.03 7.531A22.922 22.922 0 0 1 45.999 23c0 12.703-10.297 23-23 23A22.92 22.92 0 0 1 7.53 40.031C11.708 44.322 17.54 47 23.999 47c12.703 0 23-10.298 23-23 0-6.462-2.677-12.291-6.969-16.469z"/>
  <circle cx="8.5" cy="24.5" r=".5" fill="#eee"/>
  <circle cx="40.5" cy="20.5" r=".5" fill="#eee"/>
  <circle cx="43.5" cy="26.5" r=".5" fill="#eee"/>
  <circle cx="11.5" cy="33.5" r=".5" fill="#eee"/>
  <circle cx="9.5" cy="12.5" r=".5" fill="#eee"/>
  <circle cx="32.5" cy="36.5" r=".5" fill="#eee"/>
  <circle cx="19.5" cy="39.5" r=".5" fill="#eee"/>
  <circle cx="25.5" cy="43.5" r=".5" fill="#eee"/>
  <circle cx="41.5" cy="34.5" r=".5" fill="#eee"/>
  <circle cx="4.5" cy="18.5" r=".5" fill="#eee"/>
  <circle cx="5.5" cy="30.5" r=".5" fill="#eee"/>
  <circle cx="12.5" cy="40.5" r=".5" fill="#eee"/>
  <circle cx="41.5" cy="13.5" r=".5" fill="#eee"/>
  <circle cx="31.5" cy="5.5" r=".5" fill="#eee"/>
  <circle cx="23.5" cy="9.5" r=".5" fill="#eee"/>
  <circle cx="16.5" cy="5.5" r=".5" fill="#eee"/>
  <circle cx="34.5" cy="11.5" r=".5" fill="#eee"/>
  <circle opacity=".1" cx="25" cy="25" r="12"/>
  <circle fill="#eee" cx="24" cy="24" r="12"/>
</svg>
